X: 30
M:C|
L:1/8
K:G
uG"^Segno"|G2Bd gdBG|D2GB AEEF|G2Bd gdBd|ecBc A2GG|
g|fgag fddg|fgag bgeg|fgag fddg|fdef g2(dg)|
g2bg g2bg|fgaf fddg|fded fded|fdef gedB"^Segno"||


